X: 4194
T: Blue-eyed Lassie, The
R: reel
M: 4/4
K: Dmajor
DFAF BFAF|DFAF BE~E2|DFAF BFAe|faAc edd2:|
d2fd ceAc|d2AF GFEF|DA,~A,2 DFAd|fade feef|
~a3f gfef|edfd ed~d2|A2FA EADe|faAc edd2||

